X: 41
T:Langstrom's Pony
R:Jig
Z:Added by Alf Warnock
M:6/8
L:1/8
K:D
|:fed cAA|EAA cAA|fed cAA|BGB dcB|
fed cAA|EAA cAA|faf gfe|dBG Bcd:|
|:cee dff|cee ecA|cee deg|dBG Bcd|
cee dff|cee efg|faf gfe|dBG Bcd:|
|:Ace a^ga|ecA ecA|GBd =gfg|dBG Bcd|
faf gfe|fed ecA|faf gfe|dBG Bcd:|
|:AEA A2d|cAc ecB|AEA AB=c|BGB d^cB|
AEA A2d|cAc efg|faf gfe|dBG Bcd:|

